X: 1
T:Soildiers Joy,The. WCl.02
T:Soldier's Joy,aka. WCl.02
M:C|
L:1/8
Q:160
S:William Clarke MS,Lincoln,1770.
R:Hornpipe
O:Lincoln
A:England
Z:vmp.Barry Callaghan
K:D
F-G|AFDF AFDF|A2 d4 cB|AFDF AFDF|G2 E4 FG|!
AFDF AFDF|A2 d4 fg|afdf  gece|d2 d2 d2::!
a-g|fdfd fagf|ecec egfe|fdfd fagf|edcBA2 a-g|!
fdfd fagf|ecec egfe|fagf egec|d2 d2 d2:||
